X: 29131
T: Neppendorfer Laendler
R: mazurka
M: 3/4
K: Gmajor
|:g f>g|e>g c2 f>e|d>g B>e d>B|c>B A2 d>c|B>d G>g f>g|
e>g c2 g>e|d>g B>g f>e|e>d f>e c>A|G3:|
|:B A>G|c>B A2 d>c|B>D G2 B>G|F>A D2 c>A|G>D G>B A>B|
c>B A2 d>c|B>D G2 B>G|F>D F>d c>A|G3:|

